X:31
T:The Continuous Sound (x3) / Hyacinthe's Reel (x3)
R:Reel
M:2/2
Q:1/2=90
K:C
F2 F2 | F2 F2 |
%
|: FAAd d^f^f2 | ecc/c/c ABcA | GEFA d^fed | ^cAAG ^FDDE |
   FAAd d^f^f2 | ecc/c/c ABcA | d^cdA AB=cA |1 Ad^ce d2DE :|2 Ad^ce d/d/dd2
|: fBB/B/B A^FA2 | D^FAD ^FAcB | Bd^ce fgfe | ded^c AB=cA |
   fBB/B/B A^FA2 | D^FAD ^FAcB | ded^c AB=cA | Ad^ce d2d2 :|
%
|: FAAd d^f^f2 | ecc/c/c ABcA | GEFA d^fed | ^cAAG ^FDDE |
   FAAd d^f^f2 | ecc/c/c ABcA | d^cdA AB=cA |1 Ad^ce d2DE :|2 Ad^ce d/d/dd2
|: fBB/B/B A^FA2 | D^FAD ^FAcB | Bd^ce fgfe | ded^c AB=cA |
   fBB/B/B A^FA2 | D^FAD ^FAcB | ded^c AB=cA | Ad^ce d2d2 :|
%
|: FAAd d^f^f2 | ecc/c/c ABcA | GEFA d^fed | ^cAAG ^FDDE |
   FAAd d^f^f2 | ecc/c/c ABcA | d^cdA AB=cA |1 Ad^ce d2DE :|2 Ad^ce d/d/dd2
|: fBB/B/B A^FA2 | D^FAD ^FAcB | Bd^ce fgfe | ded^c AB=cA |
   fBB/B/B A^FA2 | D^FAD ^FAcB | ded^c AB=cA | Ad^ce d2d2 :|
%
% Hyacinthe's Reel (x3)
K:G
|: G2BG DGBd | c2cB cdef | d2de fdge | fdcA BGFA |
   G2BG DGBd | c2cB cdef | defd gefe |1 dcAc BGFA :|2 dcAc BGBd |
|: g2fg accc | =fec=f eABc | f2df accc | ABcA BGBd |
   g2fg accc | =fec=f eABc | eaag ageg |1 fdcA BGBd :|2 fdcA BGFA |
%
|: G2BG DGBd | c2cB cdef | d2de fdge | fdcA BGFA |
   G2BG DGBd | c2cB cdef | defd gefe |1 dcAc BGFA :|2 dcAc BGBd |
|: g2fg accc | =fec=f eABc | f2df accc | ABcA BGBd |
   g2fg accc | =fec=f eABc | eaag ageg |1 fdcA BGBd :|2 fdcA BGFA |
%
|: G2BG DGBd | c2cB cdef | d2de fdge | fdcA BGFA |
   G2BG DGBd | c2cB cdef | defd gefe |1 dcAc BGFA :|2 dcAc BGBd |
|: g2fg accc | =fec=f eABc | f2df accc | ABcA BGBd |
   g2fg accc | =fec=f eABc | eaag ageg |1 fdcA BGBd :|2 fdcA BGFA |
%

